X:121
T:Hare, The
S:John Moore's Book 2
Z:Transcribed by Edmund Spriggs 05/2021
%%VWML: Moore1-4494-p93-0
F:http://www.vwml.org/record/Moore2/4494/p93
M:6/8
L:1/8
K:G
BGG G3|cAA A3|gfe dec|BGG G3:|
|:bg/a/b G2a|gf/g/aF2a|gfg eag|fdd d3|
ece g/a/bB|dBd g/a/bB|cBc Adc|BGG G3:|

